X: 1
T: McGovern's Favourite
C: Trad
M: C|
K: Ador
A3B GEDE|G2Bd edBd|ea~a2 gedB|AcBG AGEG|
A2AB GEDE|G2Bd edBd|ea~a2 gedB|1 AcBG A4:|2 (3ABc BG A4||
a3b agef|gedB G2Bd|(3efg fa gedB|AcBG AGEG|
a3b agef|gedB G2Bd|(3efg fa gede|gbaf gedB||
